libs/ui/packages/crypto-icons/src/svg/STUSD.svg

<svg width="25" height="25" viewBox="0 0 25 25" fill="none" xmlns="http://www.w3.org/2000/svg">
<path fill-rule="evenodd" clip-rule="evenodd" d="M24.2605 13.333C24.2673 13.1662 24.2708 12.9986 24.2708 12.8301C24.2708 6.20266 18.8982 0.830078 12.2708 0.830078C5.6434 0.830078 0.270813 6.20266 0.270813 12.8301C0.270813 12.9986 0.274285 13.1662 0.281162 13.333C0.456689 13.257 2.85027 12.2358 6.33688 11.5618L5.69421 10.9319L12.2261 4.5293L14.2514 6.51469C14.0191 6.61622 13.7669 6.68492 13.5017 6.71452L12.6233 6.81258C12.5186 6.82427 12.5186 6.96721 12.6233 6.97891L13.5017 7.07696C14.6359 7.20357 15.5301 8.04487 15.6647 9.11193L15.7689 9.9383C15.7814 10.0368 15.9333 10.0368 15.9457 9.9383L16.05 9.11193C16.0789 8.88284 16.1428 8.66416 16.2366 8.46072L18.7574 10.9319L18.1295 11.5474C21.6569 12.2211 24.0837 13.2564 24.2605 13.333ZM16.2366 8.46072C16.5796 7.71658 17.3223 7.17639 18.213 7.07696L19.0914 6.97891C19.1961 6.96721 19.1961 6.82427 19.0914 6.81258L18.213 6.71452C17.0788 6.58791 16.1845 5.74661 16.05 4.67955L15.9457 3.85318C15.9333 3.75467 15.7814 3.75467 15.7689 3.85318L15.6647 4.67955C15.5616 5.49707 15.0126 6.18208 14.2514 6.51469L16.2366 8.46072ZM12.1844 10.9728L12.2677 10.9727L12.2261 10.9319L12.1844 10.9728Z" fill="#87DCC9" fill-opacity="0.5"/>
<path fill-rule="evenodd" clip-rule="evenodd" d="M6.21557 11.4349L8.95985 14.1248L12.2261 10.9238L15.4917 14.1248L18.251 11.4202C21.8487 12.1208 24.2708 13.1869 24.2708 13.1869C24.2708 19.5341 18.8982 24.6795 12.2708 24.6795C5.6434 24.6795 0.270813 19.5341 0.270813 13.1869C0.270813 13.1869 2.65925 12.1356 6.21557 11.4349ZM11.5515 18.8378H10.6579V19.0841C10.6579 19.3736 10.7247 19.6271 10.8628 19.8401C10.9995 20.051 11.1888 20.2124 11.4278 20.3242C11.6665 20.4358 11.9389 20.4903 12.2429 20.4903C12.5459 20.4903 12.8135 20.4395 13.0417 20.3351C13.2717 20.2277 13.4522 20.08 13.5788 19.8903C13.7094 19.6963 13.7737 19.4734 13.7737 19.225C13.7737 18.9783 13.7138 18.7671 13.5866 18.5989C13.4633 18.4359 13.2924 18.3076 13.0785 18.212C12.8722 18.1183 12.6306 18.0424 12.3548 17.9835L12.2302 17.9565C12.0822 17.9248 11.9644 17.8885 11.8748 17.8487C11.7882 17.8102 11.7285 17.7649 11.6899 17.7158C11.657 17.6697 11.6383 17.6108 11.6383 17.534C11.6383 17.4189 11.6782 17.3371 11.7542 17.2774C11.8347 17.2136 11.9701 17.1732 12.1779 17.1732C12.3133 17.1732 12.425 17.1936 12.5157 17.2311L12.5183 17.2321C12.6046 17.2649 12.6666 17.3166 12.7092 17.3876L12.7117 17.3913C12.7559 17.4576 12.7825 17.5529 12.7825 17.6857V17.9429H13.6762V17.6857C13.6762 17.3975 13.6117 17.1504 13.4761 16.9506C13.3463 16.7502 13.1653 16.6014 12.9365 16.5043C12.713 16.4042 12.4595 16.3555 12.1779 16.3555C11.8966 16.3555 11.6465 16.4023 11.4297 16.499C11.2161 16.5923 11.0459 16.7302 10.9231 16.9125C10.8026 17.0933 10.7446 17.3092 10.7446 17.5557C10.7446 17.7997 10.7961 18.0077 10.9071 18.1722L10.908 18.1736C11.0198 18.3332 11.1758 18.4603 11.372 18.5565L11.374 18.5575C11.5695 18.6477 11.8007 18.7219 12.0657 18.7808L12.1901 18.8079C12.3496 18.8433 12.482 18.8819 12.5882 18.923L12.5916 18.9242C12.6977 18.9607 12.7683 19.0058 12.8118 19.0548L12.8138 19.0569C12.8558 19.1014 12.8801 19.1616 12.8801 19.2467C12.8801 19.3685 12.8327 19.4663 12.7315 19.5467L12.7305 19.5475C12.6356 19.6251 12.479 19.6725 12.2429 19.6725C12.0152 19.6725 11.847 19.62 11.7278 19.5255C11.6144 19.4322 11.5515 19.2908 11.5515 19.0841V18.8378ZM7.1457 20.3117C6.90981 20.188 6.72646 20.0128 6.59798 19.787L6.59703 19.7853C6.47258 19.5558 6.41217 19.2886 6.41217 18.9868V16.4316H7.31665V19.0085C7.31665 19.2211 7.37582 19.3775 7.48455 19.4896C7.5954 19.6001 7.75955 19.6619 7.99177 19.6619C8.22447 19.6619 8.38621 19.5999 8.49312 19.49L8.49402 19.4891C8.60618 19.3769 8.66688 19.2206 8.66688 19.0085V16.4316H9.57137V18.9868C9.57137 19.289 9.50898 19.5565 9.38062 19.7861C9.25545 20.0129 9.07151 20.1883 8.83186 20.312C8.59521 20.4323 8.31366 20.4906 7.99177 20.4906C7.66981 20.4906 7.38727 20.4325 7.14734 20.3126L7.1457 20.3117ZM14.8602 20.4147V19.5969H15.3589V17.2494H14.8602V16.4316H16.5157C17.0402 16.4316 17.4543 16.5657 17.7415 16.8486C18.0333 17.1289 18.1712 17.5404 18.1712 18.0654V18.7809C18.1712 19.3063 18.0331 19.7194 17.7415 20.0031C17.4542 20.2825 17.0402 20.4147 16.5157 20.4147H14.8602ZM17.0898 17.4667C16.9806 17.3428 16.8004 17.2711 16.5265 17.2711H16.2634V19.5752H16.5265C16.8004 19.5752 16.9806 19.5035 17.0898 19.3796C17.2035 19.2505 17.2667 19.0625 17.2667 18.8026V18.0438C17.2667 17.7797 17.2033 17.5925 17.0905 17.4675L17.0898 17.4667Z" fill="#87DCC9"/>
</svg>

<svg xmlns="http://www.w3.org/2000/svg" width="25" height="25" viewBox="0 0 25 25" fill="none"><path fill="#87dcc9" fill-opacity=".5" fill-rule="evenodd" d="M24.26 13.333q.01-.25.01-.503c0-6.627-5.372-12-12-12-6.627 0-12 5.373-12 12q0 .253.011.503c.176-.076 2.57-1.097 6.056-1.771l-.643-.63 6.532-6.403 2.025 1.986q-.35.153-.75.2l-.878.098a.083.083 0 0 0 0 .166l.879.098c1.134.127 2.028.968 2.163 2.035l.104.826c.012.099.164.099.177 0l.104-.826q.045-.346.187-.651l2.52 2.47-.628.616c3.528.674 5.955 1.71 6.131 1.786m-8.023-4.872c.343-.744 1.085-1.285 1.976-1.384l.878-.098a.083.083 0 0 0 0-.166l-.878-.098c-1.134-.127-2.029-.968-2.163-2.035l-.104-.827c-.013-.098-.165-.098-.177 0l-.104.827c-.103.817-.652 1.502-1.414 1.835zm-4.053 2.512h.084l-.042-.041z" clip-rule="evenodd"/><path fill="#87dcc9" fill-rule="evenodd" d="m6.216 11.435 2.744 2.69 3.266-3.201 3.266 3.2 2.759-2.704c3.598.7 6.02 1.767 6.02 1.767 0 6.347-5.373 11.493-12 11.493-6.628 0-12-5.146-12-11.493 0 0 2.388-1.051 5.945-1.752m5.336 7.403h-.894v.246q-.001.436.205.756.205.316.565.484.357.167.815.166.455.001.799-.155.346-.16.537-.445.195-.292.195-.665.002-.372-.187-.626a1.3 1.3 0 0 0-.508-.387 3.6 3.6 0 0 0-.724-.229l-.125-.027a2 2 0 0 1-.355-.107.5.5 0 0 1-.185-.133.3.3 0 0 1-.052-.182c0-.115.04-.197.116-.257.08-.063.216-.104.424-.104q.202 0 .338.058l.002.001a.36.36 0 0 1 .191.156l.003.003a.53.53 0 0 1 .07.295v.257h.894v-.257c0-.288-.064-.536-.2-.735q-.195-.3-.54-.447a1.8 1.8 0 0 0-.758-.149q-.423 0-.748.144a1.15 1.15 0 0 0-.507.414q-.179.271-.178.643c0 .244.051.452.162.616l.001.002q.169.239.464.383h.002q.293.135.692.224l.124.027q.24.053.398.115l.004.001a.5.5 0 0 1 .22.13l.002.003a.26.26 0 0 1 .066.19q.002.181-.149.3c-.095.078-.252.125-.488.125-.228 0-.396-.052-.515-.146-.114-.094-.176-.235-.176-.442zm-4.406 1.474a1.3 1.3 0 0 1-.548-.525l-.001-.002a1.65 1.65 0 0 1-.185-.798v-2.555h.905v2.577c0 .212.059.369.168.48s.275.173.507.173.394-.062.501-.172h.001c.112-.113.173-.27.173-.481v-2.577h.904v2.555q.001.454-.19.8-.19.339-.55.525-.355.18-.84.179a1.9 1.9 0 0 1-.844-.178zm7.714.103v-.818h.499v-2.348h-.499v-.817h1.656c.524 0 .938.134 1.226.417.291.28.43.691.43 1.216v.716c0 .525-.139.938-.43 1.222-.288.28-.702.412-1.226.412zm2.23-2.948c-.11-.124-.29-.196-.564-.196h-.263v2.304h.263c.274 0 .455-.072.564-.195.113-.13.177-.317.177-.577v-.76c0-.263-.064-.45-.177-.575z" clip-rule="evenodd"/></svg>
